!!!COM: Palestrina, Giovanni Perluigi da
!!!OPR: Missa De feria
!!!OTL: Kyrie
**kern	**kern	**kern	**kern
*Ibass	*Itenor	*Icalto	*Icant
!Bassus	!Tenor	!Altus	!Cantus
*clefF4	*clefGv2	*clefG2	*clefG2
*k[]	*k[]	*k[]	*k[]
*E:phr	*E:phr	*E:phr	*E:phr
*M4/2	*M4/2	*M4/2	*M4/2
=1	=1	=1	=1
0r	0r	1.f	0r
.	.	2d	.
=2	=2	=2	=2
0r	0r	1f	0r
.	.	1e	.
=3	=3	=3	=3
0r	0r	4A	1.cc
.	.	4B	.
.	.	4c	.
.	.	4d	.
.	.	2e	.
.	.	2f	2a
=4	=4	=4	=4
0r	0r	2e	1cc
.	.	1a	.
.	.	.	1b
.	.	2g#	.
=5	=5	=5	=5
1.F	0r	2a	2a
.	.	4A	1cc
.	.	4B	.
.	.	4c	.
.	.	4A	.
2D	.	[2d	[2b
=6	=6	=6	=6
1F	0r	4d]	4b]
.	.	4c	4a
.	.	2A	1a
1E	.	1B	.
.	.	.	2g#
=7	=7	=7	=7
4AA	1.c	1A	1a
4BB	.	.	.
4C	.	.	.
4D	.	.	.
2E	.	1r	1r
2F	2A	.	.
=8	=8	=8	=8
2E	1c	2r	0r
1A	.	2.e	.
.	1B	.	.
.	.	4d	.
2G	.	2B	.
=9	=9	=9	=9
2.F	2A	1c	2r
.	1c	.	1f
4E	.	.	.
2F	.	[1d	.
2G	[2B	.	2d
=10	=10	=10	=10
1D	4B]	1d]	1f
.	4A	.	.
.	1A	.	.
1E	.	1B	1e
.	2G#	.	.
=11	=11	=11	=11
4AA	1A	1.e	4c
4BB	.	.	4d
4C	.	.	4e
4D	.	.	4f
2E	1r	.	2g
2F	.	2c	2a
=12	=12	=12	=12
4C	0r	1e	2g
4D	.	.	.
4E	.	.	1cc
4F	.	.	.
1G	.	1d	.
.	.	.	2b
=13	=13	=13	=13
1C	2r	4c	2a
.	.	4d	.
.	1c	4e	4g
.	.	4f	4f
1r	.	2g	[1e
.	2A	2a	.
=14	=14	=14	=14
0r	1c	2e	2e]
.	.	1a	4d
.	.	.	4c
.	1B	.	1d
.	.	2g	.
=15	=15	=15	=15
1.A	4A	2f	2c
.	4B	.	.
.	4c	4e	1cc
.	4d	4d	.
.	2e	1c	.
2F	2f	.	2a
=16	=16	=16	=16
1A	2c	2r	1cc
.	1f	2c	.
1G	.	2d	1b
.	2e	2e	.
=17	=17	=17	=17
1.F	2.f	1A	2a
.	.	.	1cc
.	8e	.	.
.	8d	.	.
.	2c	[1f	.
2D	[2d	.	[2b
=18	=18	=18	=18
1F	4d]	2f]	4b]
.	4c	.	4a
.	2A	2d	1a
1E	1B	1e	.
.	.	.	2g#
=19	=19	=19	=19
0AA	0A	0e	0a
=20	=20	=20	=20
0r	0r	1.f	0r
.	.	4e	.
.	.	4d	.
=21	=21	=21	=21
0r	0r	2f	1.cc
.	.	4e	.
.	.	4d	.
.	.	2c	.
.	.	2d	4b
.	.	.	4a
=22	=22	=22	=22
1r	0r	1A	2cc
.	.	.	4b
.	.	.	4a
[1c	.	[1e	2g
.	.	.	2a
=23	=23	=23	=23
2c]	0r	2e]	4e
.	.	.	4f
4B	.	4d	4g
4A	.	4c	4a
2c	.	2e	4g
.	.	.	4a
4B	.	4d	4b
4A	.	4c	4cc
=24	=24	=24	=24
2G	0r	2d	2b
2A	.	2c	1a
1E	.	1B	.
.	.	.	2g#
=25	=25	=25	=25
1.A	1.c	1A	1a
.	.	1r	1e
4G	4B	.	.
4F	4A	.	.
=26	=26	=26	=26
2A	2c	1.e	1r
4G	4B	.	.
4F	4A	.	.
2E	2G	.	[1cc
2F	2A	4d	.
.	.	4c	.
=27	=27	=27	=27
2C	2E	2e	2cc]
2D	1A	2f	4b
.	.	.	4a
[1E	.	1e	2cc
.	2G	.	4b
.	.	.	4a
=28	=28	=28	=28
0E]	1c	0e	2g
.	.	.	2.a
.	2.B	.	.
.	.	.	4g
.	.	.	2g
.	4c	.	.
=29	=29	=29	=29
0r	2d	2r	2f
.	2A	1f	1a
.	1B-	.	.
.	.	4e	2g
.	.	4d	.
=30	=30	=30	=30
2r	1A	2f	1a
1c	.	1e	.
.	1r	.	[1g
4B	.	4d	.
4A	.	4c	.
=31	=31	=31	=31
2c	1r	2e	1g]
4B	.	4d	.
4A	.	4c	.
2G	2r	2B	1e
2A	[2c	[2e	.
=32	=32	=32	=32
1F	2c]	2e]	1r
.	4B	2d	.
.	4A	.	.
1E	2c	2.e	2r
.	4B	.	[2g
.	4A	8d	.
.	.	8c	.
=33	=33	=33	=33
0r	2G	2B	2g]
.	2A	2c	4f
.	.	.	4e
.	2E	2B	2g
.	2F	2A	4f
.	.	.	4e
=34	=34	=34	=34
1r	1G	1B	2d
.	.	.	2e
2r	1A	2r	2f
[2c	.	[2e	2e
=35	=35	=35	=35
2c]	0r	2e]	1a
4B	.	4d	.
4A	.	4c	.
2c	.	2e	1g
4B	.	4d	.
4A	.	4c	.
=36	=36	=36	=36
2G	2r	2B	0r
2A	1e	2c	.
2E	.	2G	.
2F	4d	[2c	.
.	4c	.	.
=37	=37	=37	=37
1.G	2e	2c]	1r
.	4d	2B	.
.	4c	.	.
.	2B	2G	2r
2F	[2c	2A	[2a
=38	=38	=38	=38
1D	2c]	1F	2a]
.	2B	.	4g
.	.	.	4f
[1C	1c	2r	2a
.	.	[2c	4g
.	.	.	4f
=39	=39	=39	=39
2C]	0r	2c]	2e
2D	.	4B	2f
.	.	4A	.
[1E	.	2c	2e
.	.	4B	[2g
.	.	4A	.
=40	=40	=40	=40
2E]	2r	1G	4g]
.	.	.	4f
2C	1c	.	1e
1F	.	1A	.
.	4B	.	2d
.	4A	.	.
=41	=41	=41	=41
1.E	2c	[0e	2.g
.	4B	.	.
.	4A	.	4a
.	2G	.	2b
[2AA	2A	.	[2cc
=42	=42	=42	=42
4AA]	1c	1e_	4cc]
4BB	.	.	4b
4C	.	.	1a
4D	.	.	.
1E	1B	1e_	.
.	.	.	2g#
=43	=43	=43	=43
0AA	0A	0e]	0a
=44	=44	=44	=44
1A	1r	0r	0r
[1G	1e	.	.
=45	=45	=45	=45
2G]	1.d	0r	0r
2F	.	.	.
2G	.	.	.
2A	2c	.	.
=46	=46	=46	=46
2B-	2d	0r	0r
2G	2e	.	.
1A	2c	.	.
.	[2f	.	.
=47	=47	=47	=47
2F	4f]	0r	1r
.	4e	.	.
2E	2e	.	.
1F	4d	.	1a
.	4c	.	.
.	4c	.	.
.	8B	.	.
.	8A	.	.
=48	=48	=48	=48
2E	2B	1e	1.g
2C	2c	.	.
1D	2A	[1d	.
.	[2B-	.	2f
=49	=49	=49	=49
0r	2B-]	2d]	2g
.	2A	2c	2a
.	2G	2d	2b-
.	2c	2e	2g
=50	=50	=50	=50
0r	4F	2c	1a
.	4G	.	.
.	4A	2.f	.
.	4B	.	.
.	1c	.	2g
.	.	4e	.
.	.	[2e	2e
=51	=51	=51	=51
0r	1d	2e]	1f
.	.	2d	.
.	2A	4c	[1e
.	.	4B	.
.	2c	[2A	.
=52	=52	=52	=52
1E	1B	2A]	2e]
.	.	2G#	2e
[1D	2.d	2A	2.f
.	.	[2d	.
.	4c	.	4e
=53	=53	=53	=53
2D]	4A	2d]	4f
.	4B	.	4g
2C	1c	2e	1a
2D	.	2f	.
2E	[2B	4e	2g
.	.	4d	.
=54	=54	=54	=54
2F	4B]	2c	1f
.	4A	.	.
2D	1A	2d	.
1E	.	1B	1e
.	[2G	.	.
=55	=55	=55	=55
2C	4G]	1e	0r
.	4E	.	.
2AA	1A	.	.
1BB	.	[1d	.
.	2G#	.	.
=56	=56	=56	=56
2AA	1A	2d]	0r
2A	.	2c	.
1G	2.B	2d	.
.	.	2e	.
.	4c	.	.
=57	=57	=57	=57
2D	2d	2f	1a
2F	2A	2d	.
2E	2B	1e	[1g
2C	2c	.	.
=58	=58	=58	=58
1D	1A	1d	2g]
.	.	.	2f
2r	1r	2e	2g
2D	.	2f	2a
=59	=59	=59	=59
2G	2r	2d	2b-
2E	2G	2e	2g
1F	2c	2A	1a
.	2A	2d	.
=60	=60	=60	=60
2E	2B	2G	2g
2C	2c	1c	2e
1D	1F	.	1f
.	.	2B	.
=61	=61	=61	=61
2.AA	2r	1c	2e
.	1A	.	1cc
4BB	.	.	.
1C	.	2r	.
.	[2G	[2e	2b
=62	=62	=62	=62
1D	2G]	2e]	1a
.	2F	1d	.
1r	2G	.	2r
.	2A	2c	[2a
=63	=63	=63	=63
0r	2B-	2d	2a]
.	2G	1e	1g
.	1A	.	.
.	.	4d	2f
.	.	4c	.
=64	=64	=64	=64
0r	2G	2e	2g
.	2F	2.f	2a
.	1G	.	2b-
.	.	4e	.
.	.	[2e	2g
=65	=65	=65	=65
0r	1F	2e]	1a
.	.	2d	.
.	2E	2e	2g
.	[2e	2c	2e
=66	=66	=66	=66
1r	2e]	1d	1f
.	1d	.	.
2r	.	1A	1e
[2A	2c	.	.
=67	=67	=67	=67
2A]	0d	1r	2f
1G	.	.	2g
.	.	2r	1a
2F	.	2A	.
=68	=68	=68	=68
2G	2e	2B	1r
2A	1f	2c	.
2B-	.	2d	2r
2G	4e	[2e	2g
.	4d	.	.
=69	=69	=69	=69
1A	2c	2e]	2e
.	2A	4d	2f#
.	.	4c	.
2G	2B	2d	1g
2E	[2c	2e	.
=70	=70	=70	=70
1F	2c]	1A	1a
.	2d	.	.
2E	1e	2r	2.g
2C	.	[2e	.
.	.	.	8f
.	.	.	8e
=71	=71	=71	=71
1D	1A	2e]	1f
.	.	1d	.
2.A	2r	.	2e
.	[2A	2c	2e
4G	.	.	.
=72	=72	=72	=72
2F	2A]	2d	2f
2E	1G	2e	2g
1D	.	2f	2a
.	2F	2d	2b
=73	=73	=73	=73
1C	2G	1e	2cc
.	2A	.	2c
1G	2B-	2d	2d
.	2G	2B	2e
=74	=74	=74	=74
1F	1A	0c	4f
.	.	.	4c
.	.	.	2.f
1C	2G	.	.
.	.	.	4e
.	2E	.	[2e
=75	=75	=75	=75
0D	0F	0A	2e]
.	.	.	4d
.	.	.	4c
.	.	.	1d
=76	=76	=76	=76
0AA	1E	0c	[0e
.	1A	.	.
=77	=77	=77	=77
[0E	[0G#	[0B	1e_
.	.	.	1e_
=78	=78	=78	=78
0E]	0G#]	0B]	0e]
==	==	==	==
*-	*-	*-	*-
!!!CDT: 1525/^1526/-1594/2/2
!!!OCY: Italia
!!!AGN: Mass (Paraphrase)
!!!AST: renaissance, vocal
!!!ASW: Gregorian Mass
!!!PWK: Masses, Book 3
!!!RNB: Cadence finals: A
!!!YOR: Le Opere Complete, v. 6, p. 84
!!!YOO: Rome, Italy: Fratelli Scalera
!!!END: 1992//
!!!EED: John Miller
!!!YEC: Copyright 2000, John Miller
!!!YEN: United States of America
!!!YEM: Rights to all derivative electronic formats reserved.
!!!YEM: Refer to licensing agreement for further details.
!!!YEM: This file must be accompanied by the licensing agreement.
!!!YEM: A copy of the licensing agreement may be found at http://www.music-cog.ohio-state.edu/HumdrumDatabases/Palestrina/license.txt
!!!EMD: converted to Humdrum by Bret Aarden
